exports/share-of-electricity-production-from-fossil-fuels_v3_850x600.svg

<svg xmlns="http://www.w3.org/2000/svg" version="1.1" style="background-color:#fff;-webkit-font-smoothing:antialiased" width="850" height="600" font-family="'Helvetica Neue',Helvetica,Arial,sans-serif" font-size="18" text-rendering="optimizeLegibility"><g class="ChartTab"><g class="HeaderView"><g opacity=".8" transform="matrix(.27 0 0 .27 778 15)"><a xmlns:xlink="http://www.w3.org/1999/xlink" xlink:href="https://ourworldindata.org" target="_blank"><g><path fill="#1B2543" d="M0 0h211.2v130.1H0z"/><path fill="#E63912" d="M0 112.2h211.2v17.9H0z"/><g><path fill="none" d="M1.2 12.3h210.2v99.2H1.2z"/><path fill="#FFF" d="M37.8 32.2c0 12.7-7.7 19.4-17.1 19.4-9.7 0-16.6-7.5-16.6-18.7 0-11.7 7.3-19.3 17.1-19.3 10.1.1 16.6 7.7 16.6 18.6zm-28.6.6c0 7.9 4.3 14.9 11.8 14.9 7.5 0 11.8-6.9 11.8-15.3 0-7.3-3.8-14.9-11.8-14.9-7.9 0-11.8 7.3-11.8 15.3zM62.7 43.8c0 2.7.1 5.1.2 7.2h-4.3l-.3-4.3h-.1c-1.3 2.1-4 4.9-8.8 4.9-4.2 0-9.1-2.3-9.1-11.6V24.6h4.8v14.6c0 5 1.5 8.4 5.9 8.4 3.2 0 5.5-2.2 6.3-4.4.3-.7.4-1.6.4-2.5V24.6h4.8v19.2zM67.3 32.8c0-3.1-.1-5.8-.2-8.2h4.2l.2 5.2h.2c1.2-3.5 4.1-5.8 7.3-5.8.5 0 .9.1 1.4.2v4.5c-.5-.1-1-.2-1.6-.2-3.4 0-5.8 2.6-6.5 6.2-.1.7-.2 1.4-.2 2.2V51h-4.8V32.8zM95.4 51L86 14.2h5l4.4 18.6c1.1 4.6 2.1 9.2 2.7 12.7h.1c.6-3.7 1.8-8 3-12.8l4.9-18.5h5l4.5 18.7c1 4.4 2 8.7 2.6 12.6h.1c.8-4 1.8-8.1 3-12.7l4.9-18.5h4.9L120.6 51h-5L111 31.9c-1.1-4.7-1.9-8.3-2.4-12h-.1c-.7 3.7-1.5 7.3-2.8 12L100.4 51h-5zM154.9 37.6c0 9.8-6.8 14-13.2 14-7.2 0-12.7-5.2-12.7-13.6 0-8.8 5.8-14 13.1-14 7.7 0 12.8 5.5 12.8 13.6zm-21 .3c0 5.8 3.3 10.1 8 10.1 4.6 0 8-4.3 8-10.3 0-4.5-2.2-10.1-7.9-10.1s-8.1 5.2-8.1 10.3zM158.2 32.8c0-3.1-.1-5.8-.2-8.2h4.2l.2 5.2h.2c1.2-3.5 4.1-5.8 7.3-5.8.5 0 .9.1 1.4.2v4.5c-.5-.1-1-.2-1.6-.2-3.4 0-5.8 2.6-6.5 6.2-.1.7-.2 1.4-.2 2.2V51h-4.8V32.8zM173.5 12.3h4.8V51h-4.8V12.3zM206.5 12.3v31.9c0 2.3.1 5 .2 6.8h-4.3l-.2-4.6h-.2c-1.5 2.9-4.7 5.2-9 5.2-6.4 0-11.3-5.4-11.3-13.4-.1-8.8 5.4-14.2 11.9-14.2 4 0 6.8 1.9 8 4h.1V12.3h4.8zm-4.8 23.1c0-.6-.1-1.4-.2-2a7 7 0 00-6.9-5.6c-5 0-7.9 4.4-7.9 10.2 0 5.3 2.6 9.8 7.8 9.8 3.2 0 6.2-2.1 7.1-5.7.2-.7.2-1.3.2-2.1v-4.6zM42.8 64c.1 1.6-1.1 2.9-3.1 2.9-1.7 0-2.9-1.3-2.9-2.9 0-1.7 1.3-3 3-3 1.9 0 3 1.3 3 3zm-5.4 33.8V71.4h4.8v26.4h-4.8zM47.5 78.6c0-2.7-.1-5-.2-7.1h4.3l.3 4.4h.1c1.3-2.5 4.4-5 8.8-5 3.7 0 9.4 2.2 9.4 11.2v15.8h-4.8V82.6c0-4.3-1.6-7.8-6.1-7.8-3.2 0-5.6 2.2-6.5 4.9-.2.6-.3 1.4-.3 2.2v15.9h-4.8V78.6zM84 61.6c2.9-.4 6.3-.8 10.1-.8 6.8 0 11.7 1.6 14.9 4.6 3.3 3 5.2 7.3 5.2 13.2 0 6-1.9 10.9-5.3 14.3-3.4 3.4-9.1 5.3-16.3 5.3-3.4 0-6.2-.2-8.6-.4V61.6zm4.8 32.5c1.2.2 3 .3 4.8.3 10.2 0 15.7-5.7 15.7-15.6.1-8.7-4.9-14.2-14.9-14.2-2.5 0-4.3.2-5.6.5v29zM132.1 97.8l-.4-3.3h-.2a9.79 9.79 0 01-8.1 3.9c-5.4 0-8.1-3.8-8.1-7.6 0-6.4 5.7-9.9 15.9-9.8v-.5c0-2.2-.6-6.1-6-6.1-2.5 0-5 .8-6.9 2l-1.1-3.2c2.2-1.4 5.4-2.3 8.7-2.3 8.1 0 10.1 5.5 10.1 10.8v9.9c0 2.3.1 4.5.4 6.3h-4.3zm-.7-13.4c-5.3-.1-11.2.8-11.2 5.9 0 3.1 2.1 4.6 4.5 4.6 3.4 0 5.6-2.2 6.4-4.4.2-.5.3-1 .3-1.5v-4.6zM146.6 63.9v7.6h6.9v3.7h-6.9v14.2c0 3.3.9 5.1 3.6 5.1 1.3 0 2.2-.2 2.8-.3l.2 3.6c-.9.4-2.4.7-4.3.7-2.2 0-4-.7-5.2-2-1.4-1.4-1.9-3.8-1.9-6.9V75.1h-4.1v-3.7h4.1v-6.3l4.8-1.2zM171.4 97.8l-.4-3.3h-.2a9.79 9.79 0 01-8.1 3.9c-5.4 0-8.1-3.8-8.1-7.6 0-6.4 5.7-9.9 15.9-9.8v-.5c0-2.2-.6-6.1-6-6.1-2.5 0-5 .8-6.9 2l-1.1-3.2c2.2-1.4 5.4-2.3 8.7-2.3 8.1 0 10.1 5.5 10.1 10.8v9.9c0 2.3.1 4.5.4 6.3h-4.3zm-.7-13.4c-5.3-.1-11.2.8-11.2 5.9 0 3.1 2.1 4.6 4.5 4.6 3.4 0 5.6-2.2 6.4-4.4.2-.5.3-1 .3-1.5v-4.6z"/></g></g></a></g><a href="https://ourworldindata.org/grapher/share-of-electricity-production-from-fossil-fuels" target="_blank"><text font-size="25.2" x="15" y="35.2" fill="#555"><tspan x="15" y="35.16">Share of electricity production from fossil fuels, World</tspan></text></a><text font-size="14.4" x="15" y="53.7" fill="#666"><tspan x="15" y="53.72">The share of total electricity production from coal, oil and natural gas sources.</tspan></text></g><g class="StackedArea"><defs><clipPath id="a"><path d="M52.56 0h820v959.8h-820z"/></clipPath></defs><g class="AxisBoxView"><g class="HorizontalAxis" fill="#666" text-anchor="middle" font-size="16.2"><text x="52.6" y="556.5">1990</text><text x="188.2" y="556.5">1995</text><text x="323.8" y="556.5">2000</text><text x="459.5" y="556.5">2005</text><text x="595.1" y="556.5">2010</text><text x="730.7" y="556.5">2015</text></g><g class="VerticalAxis" fill="#666" dominant-baseline="middle" text-anchor="end" font-size="16.2"><text x="47.56" y="535.3">0%</text><text x="47.56" y="467">10%</text><text x="47.56" y="398.8">20%</text><text x="47.56" y="330.5">30%</text><text x="47.56" y="262.3">40%</text><text x="47.56" y="194">50%</text><text x="47.56" y="125.8">60%</text></g><g class="AxisGridLines"><path stroke="#ccc" d="M52.56 535.3h678.19"/><path stroke="#ddd" stroke-dasharray="3,2" d="M52.56 467h678.19M52.56 398.8h678.19M52.56 330.5h678.19M52.56 262.3h678.19M52.56 194h678.19M52.56 125.8h678.19"/></g></g><g clip-path="url(#a)"><g class="HeightedLegend clickable"><g class="legendMark"><text font-size="13.5" x="735.7" y="105.3" fill="#ffd53e"><tspan x="735.75" y="105.25">Oil</tspan></text></g><g class="legendMark"><text font-size="13.5" x="735.7" y="194.3" fill="#34983f"><tspan x="735.75" y="194.25">Natural gas</tspan></text></g><g class="legendMark"><text font-size="13.5" x="735.7" y="405.7" fill="#3360a9"><tspan x="735.75" y="405.65">Coal</tspan></text></g></g><g class="Areas"><path d="M52.6 282.7l27.1-.4 27.1-2.3 27.1.2 27.2-1 27.1 1.2 27.1-4.2 27.2-.4 27.1 1.3 27.1 1.2 27.1-6.7 27.2 1.3 27.1-2.1 27.1-7.4 27.1 3.1 27.2-3.2 27.1-4.5 27.1-4.3 27.2 3.4 27.1 4.3 27.1-.7 27.1-6.1 27.2 5 27.1-5.3 27.1 3.9 27.1 9 .04 267.3H52.57" fill="#3360a9" fill-opacity=".7" class="World_1-area"/><path d="M52.6 182.2l27.1.2 27.1-2.1 27.1-.5 27.2-2.5 27.1-.5 27.1-4.3 27.2-5.9 27.1-2.4 27.1-5 27.1-8.7L351 146l27.1-5.8 27.1-9.3 27.1-.5 27.2-4.7 27.1-6.9 27.1-9 27.2.8 27.1 2 27.1-3.9 27.1-3.2 27.2 2.1 27.1.9 27.1 3 27.1.9V268l-27.1-9-27.1-3.9-27.1 5.3-27.2-5-27.1 6.1-27.1.7-27.1-4.3-27.2-3.4-27.1 4.3-27.1 4.5-27.2 3.2-27.1-3.1-27.1 7.4-27.1 2.1-27.2-1.3-27.1 6.7-27.1-1.2-27.1-1.3-27.2.4-27.1 4.2-27.1-1.2-27.2 1-27.1-.2-27.1 2.3-27.1.4" fill="#34983f" fill-opacity=".7" class="World_2-area"/><path d="M52.6 112.5l27.1 1.4h27.1l27.1 3.7 27.2-.6 27.1 1.8 27.1-1.6 27.2-5.4 27.1-3.6 27.1-2.1 27.1-5.5 27.2-2.7 27.1-3.6 27.1-8.3 27.1 2.3 27.2-1.8 27.1-2.3 27.1-7.6 27.2 2.6L568 84l27.1-1.3 27.1-4.7 27.2 1.2 27.1 3.4 27.1 4.7 27.1 2.7v22.4l-27.1-.9-27.1-3-27.1-.9-27.2-2.1-27.1 3.2-27.1 3.9-27.1-2-27.2-.8-27.1 9-27.1 6.9-27.2 4.7-27.1.5-27.1 9.3L351 146l-27.2 4.5-27.1 8.7-27.1 5-27.1 2.4-27.2 5.9-27.1 4.3-27.1.5-27.2 2.5-27.1.5-27.1 2.1-27.1-.2" fill="#ffd53e" fill-opacity=".7" class="World_0-area"/><path stroke-linecap="round" d="M52.6 282.7l27.1-.4 27.1-2.3 27.1.2 27.2-1 27.1 1.2 27.1-4.2 27.2-.4 27.1 1.3 27.1 1.2 27.1-6.7 27.2 1.3 27.1-2.1 27.1-7.4 27.1 3.1 27.2-3.2 27.1-4.5 27.1-4.3 27.2 3.4 27.1 4.3 27.1-.7 27.1-6.1 27.2 5 27.1-5.3 27.1 3.9 27.1 9" stroke="#2B508D" stroke-opacity=".7" stroke-width=".5" fill="none" class="World_1-border"/><path stroke-linecap="round" d="M52.6 182.2l27.1.2 27.1-2.1 27.1-.5 27.2-2.5 27.1-.5 27.1-4.3 27.2-5.9 27.1-2.4 27.1-5 27.1-8.7L351 146l27.1-5.8 27.1-9.3 27.1-.5 27.2-4.7 27.1-6.9 27.1-9 27.2.8 27.1 2 27.1-3.9 27.1-3.2 27.2 2.1 27.1.9 27.1 3 27.1.9" stroke="#2C7F35" stroke-opacity=".7" stroke-width=".5" fill="none" class="World_2-border"/><path stroke-linecap="round" d="M52.6 112.5l27.1 1.4h27.1l27.1 3.7 27.2-.6 27.1 1.8 27.1-1.6 27.2-5.4 27.1-3.6 27.1-2.1 27.1-5.5 27.2-2.7 27.1-3.6 27.1-8.3 27.1 2.3 27.2-1.8 27.1-2.3 27.1-7.6 27.2 2.6L568 84l27.1-1.3 27.1-4.7 27.2 1.2 27.1 3.4 27.1 4.7 27.1 2.7" stroke="#D5B234" stroke-opacity=".7" stroke-width=".5" fill="none" class="World_0-border"/></g></g></g><g class="SourcesFooter" fill="#777"><g class="clickable" fill="#777"><text font-size="12.6" x="15" y="581.6"><tspan x="15" y="581.58">Source: International Energy Agency (IEA) via The World Bank</tspan></text></g><text font-size="12.6" x="582.4" y="581.6"><tspan x="582.37" y="581.58"><a target="_blank" href="https://ourworldindata.org/fossil-fuels/" fill="#777">OurWorldInData.org/fossil-fuels/</a> • <a class="cclogo" href="http://creativecommons.org/licenses/by-sa/4.0/deed.en_US" target="_blank" fill="#777">CC BY-SA</a></tspan></text></g></g></svg>

<svg xmlns="http://www.w3.org/2000/svg" version="1.1" style="font-family: 'Helvetica Neue', Helvetica, Arial, sans-serif; font-size: 18px; background-color: white; text-rendering: optimizeLegibility; -webkit-font-smoothing: antialiased;" width="850" height="600"><g class="ChartTab"><g class="HeaderView"><g opacity="0.8" transform="translate(778, 15) scale(0.27)"><a xmlns:xlink="http://www.w3.org/1999/xlink" xlink:href="https://ourworldindata.org" target="_blank"><g><rect x="0" y="0" fill="#1B2543" width="211.2" height="130.1"/><rect x="0" y="112.2" fill="#E63912" width="211.2" height="17.9"/><g><rect x="1.2" y="12.3" fill="none" width="210.2" height="99.2"/><path fill="#FFFFFF" d="M37.8,32.2c0,12.7-7.7,19.4-17.1,19.4c-9.7,0-16.6-7.5-16.6-18.7c0-11.7,7.3-19.3,17.1-19.3 C31.3,13.7,37.8,21.3,37.8,32.2z M9.2,32.8c0,7.9,4.3,14.9,11.8,14.9c7.5,0,11.8-6.9,11.8-15.3c0-7.3-3.8-14.9-11.8-14.9 C13.1,17.5,9.2,24.8,9.2,32.8z"/><path fill="#FFFFFF" d="M62.7,43.8c0,2.7,0.1,5.1,0.2,7.2h-4.3l-0.3-4.3h-0.1c-1.3,2.1-4,4.9-8.8,4.9c-4.2,0-9.1-2.3-9.1-11.6 V24.6h4.8v14.6c0,5,1.5,8.4,5.9,8.4c3.2,0,5.5-2.2,6.3-4.4c0.3-0.7,0.4-1.6,0.4-2.5V24.6h4.8V43.8z"/><path fill="#FFFFFF" d="M67.3,32.8c0-3.1-0.1-5.8-0.2-8.2h4.2l0.2,5.2h0.2c1.2-3.5,4.1-5.8,7.3-5.8c0.5,0,0.9,0.1,1.4,0.2v4.5 c-0.5-0.1-1-0.2-1.6-0.2c-3.4,0-5.8,2.6-6.5,6.2c-0.1,0.7-0.2,1.4-0.2,2.2V51h-4.8V32.8z"/><path fill="#FFFFFF" d="M95.4,51l-9.4-36.8h5l4.4,18.6c1.1,4.6,2.1,9.2,2.7,12.7h0.1c0.6-3.7,1.8-8,3-12.8l4.9-18.5h5l4.5,18.7 c1,4.4,2,8.7,2.6,12.6h0.1c0.8-4,1.8-8.1,3-12.7l4.9-18.5h4.9L120.6,51h-5L111,31.9c-1.1-4.7-1.9-8.3-2.4-12h-0.1 c-0.7,3.7-1.5,7.3-2.8,12L100.4,51H95.4z"/><path fill="#FFFFFF" d="M154.9,37.6c0,9.8-6.8,14-13.2,14c-7.2,0-12.7-5.2-12.7-13.6c0-8.8,5.8-14,13.1-14 C149.8,24,154.9,29.5,154.9,37.6z M133.9,37.9c0,5.8,3.3,10.1,8,10.1c4.6,0,8-4.3,8-10.3c0-4.5-2.2-10.1-7.9-10.1 C136.3,27.6,133.9,32.8,133.9,37.9z"/><path fill="#FFFFFF" d="M158.2,32.8c0-3.1-0.1-5.8-0.2-8.2h4.2l0.2,5.2h0.2c1.2-3.5,4.1-5.8,7.3-5.8c0.5,0,0.9,0.1,1.4,0.2v4.5 c-0.5-0.1-1-0.2-1.6-0.2c-3.4,0-5.8,2.6-6.5,6.2c-0.1,0.7-0.2,1.4-0.2,2.2V51h-4.8V32.8z"/><path fill="#FFFFFF" d="M173.5,12.3h4.8V51h-4.8V12.3z"/><path fill="#FFFFFF" d="M206.5,12.3v31.9c0,2.3,0.1,5,0.2,6.8h-4.3l-0.2-4.6H202c-1.5,2.9-4.7,5.2-9,5.2 c-6.4,0-11.3-5.4-11.3-13.4c-0.1-8.8,5.4-14.2,11.9-14.2c4,0,6.8,1.9,8,4h0.1V12.3H206.5z M201.7,35.4c0-0.6-0.1-1.4-0.2-2 c-0.7-3.1-3.3-5.6-6.9-5.6c-5,0-7.9,4.4-7.9,10.2c0,5.3,2.6,9.8,7.8,9.8c3.2,0,6.2-2.1,7.1-5.7c0.2-0.7,0.2-1.3,0.2-2.1V35.4z"/><path fill="#FFFFFF" d="M42.8,64c0.1,1.6-1.1,2.9-3.1,2.9c-1.7,0-2.9-1.3-2.9-2.9c0-1.7,1.3-3,3-3C41.7,61,42.8,62.3,42.8,64z M37.4,97.8V71.4h4.8v26.4H37.4z"/><path fill="#FFFFFF" d="M47.5,78.6c0-2.7-0.1-5-0.2-7.1h4.3l0.3,4.4h0.1c1.3-2.5,4.4-5,8.8-5c3.7,0,9.4,2.2,9.4,11.2v15.8h-4.8 V82.6c0-4.3-1.6-7.8-6.1-7.8c-3.2,0-5.6,2.2-6.5,4.9c-0.2,0.6-0.3,1.4-0.3,2.2v15.9h-4.8V78.6z"/><path fill="#FFFFFF" d="M84,61.6c2.9-0.4,6.3-0.8,10.1-0.8c6.8,0,11.7,1.6,14.9,4.6c3.3,3,5.2,7.3,5.2,13.2c0,6-1.9,10.9-5.3,14.3 c-3.4,3.4-9.1,5.3-16.3,5.3c-3.4,0-6.2-0.2-8.6-0.4V61.6z M88.8,94.1c1.2,0.2,3,0.3,4.8,0.3c10.2,0,15.7-5.7,15.7-15.6 c0.1-8.7-4.9-14.2-14.9-14.2c-2.5,0-4.3,0.2-5.6,0.5V94.1z"/><path fill="#FFFFFF" d="M132.1,97.8l-0.4-3.3h-0.2c-1.5,2.1-4.3,3.9-8.1,3.9c-5.4,0-8.1-3.8-8.1-7.6c0-6.4,5.7-9.9,15.9-9.8v-0.5 c0-2.2-0.6-6.1-6-6.1c-2.5,0-5,0.8-6.9,2l-1.1-3.2c2.2-1.4,5.4-2.3,8.7-2.3c8.1,0,10.1,5.5,10.1,10.8v9.9c0,2.3,0.1,4.5,0.4,6.3 H132.1z M131.4,84.4c-5.3-0.1-11.2,0.8-11.2,5.9c0,3.1,2.1,4.6,4.5,4.6c3.4,0,5.6-2.2,6.4-4.4c0.2-0.5,0.3-1,0.3-1.5V84.4z"/><path fill="#FFFFFF" d="M146.6,63.9v7.6h6.9v3.7h-6.9v14.2c0,3.3,0.9,5.1,3.6,5.1c1.3,0,2.2-0.2,2.8-0.3l0.2,3.6 c-0.9,0.4-2.4,0.7-4.3,0.7c-2.2,0-4-0.7-5.2-2c-1.4-1.4-1.9-3.8-1.9-6.9V75.1h-4.1v-3.7h4.1v-6.3L146.6,63.9z"/><path fill="#FFFFFF" d="M171.4,97.8l-0.4-3.3h-0.2c-1.5,2.1-4.3,3.9-8.1,3.9c-5.4,0-8.1-3.8-8.1-7.6c0-6.4,5.7-9.9,15.9-9.8v-0.5 c0-2.2-0.6-6.1-6-6.1c-2.5,0-5,0.8-6.9,2l-1.1-3.2c2.2-1.4,5.4-2.3,8.7-2.3c8.1,0,10.1,5.5,10.1,10.8v9.9c0,2.3,0.1,4.5,0.4,6.3 H171.4z M170.7,84.4c-5.3-0.1-11.2,0.8-11.2,5.9c0,3.1,2.1,4.6,4.5,4.6c3.4,0,5.6-2.2,6.4-4.4c0.2-0.5,0.3-1,0.3-1.5V84.4z"/></g></g></a></g><a href="https://ourworldindata.org/grapher/share-of-electricity-production-from-fossil-fuels" target="_blank"><text font-size="25.20" x="15.0" y="35.2" fill="#555"><tspan x="15" y="35.160000000000004">Share of electricity production from fossil fuels, World</tspan></text></a><text font-size="14.40" x="15.0" y="53.7" fill="#666"><tspan x="15" y="53.72">The share of total electricity production from coal, oil and natural gas sources.</tspan></text></g><g class="StackedArea"><defs><clipPath id="boundsClip-3"><rect x="52.562" y="0" width="820" height="959.8"></rect></clipPath></defs><g class="AxisBoxView"><g class="HorizontalAxis"><text x="52.6" y="556.5" fill="#666" text-anchor="middle" font-size="16.2">1990</text><text x="188.2" y="556.5" fill="#666" text-anchor="middle" font-size="16.2">1995</text><text x="323.8" y="556.5" fill="#666" text-anchor="middle" font-size="16.2">2000</text><text x="459.5" y="556.5" fill="#666" text-anchor="middle" font-size="16.2">2005</text><text x="595.1" y="556.5" fill="#666" text-anchor="middle" font-size="16.2">2010</text><text x="730.7" y="556.5" fill="#666" text-anchor="middle" font-size="16.2">2015</text></g><g class="VerticalAxis"><text x="47.56" y="535.3" fill="#666" dominant-baseline="middle" text-anchor="end" font-size="16.2">0%</text><text x="47.56" y="467" fill="#666" dominant-baseline="middle" text-anchor="end" font-size="16.2">10%</text><text x="47.56" y="398.8" fill="#666" dominant-baseline="middle" text-anchor="end" font-size="16.2">20%</text><text x="47.56" y="330.5" fill="#666" dominant-baseline="middle" text-anchor="end" font-size="16.2">30%</text><text x="47.56" y="262.3" fill="#666" dominant-baseline="middle" text-anchor="end" font-size="16.2">40%</text><text x="47.56" y="194" fill="#666" dominant-baseline="middle" text-anchor="end" font-size="16.2">50%</text><text x="47.56" y="125.8" fill="#666" dominant-baseline="middle" text-anchor="end" font-size="16.2">60%</text></g><g class="AxisGridLines"><line x1="52.56" y1="535.3" x2="730.75" y2="535.3" stroke="#ccc"></line><line x1="52.56" y1="467" x2="730.75" y2="467" stroke="#ddd" stroke-dasharray="3,2"></line><line x1="52.56" y1="398.8" x2="730.75" y2="398.8" stroke="#ddd" stroke-dasharray="3,2"></line><line x1="52.56" y1="330.5" x2="730.75" y2="330.5" stroke="#ddd" stroke-dasharray="3,2"></line><line x1="52.56" y1="262.3" x2="730.75" y2="262.3" stroke="#ddd" stroke-dasharray="3,2"></line><line x1="52.56" y1="194" x2="730.75" y2="194" stroke="#ddd" stroke-dasharray="3,2"></line><line x1="52.56" y1="125.8" x2="730.75" y2="125.8" stroke="#ddd" stroke-dasharray="3,2"></line></g></g><g clip-path="url(#boundsClip-3)"><g class="HeightedLegend clickable"><g class="legendMark"><rect x="730.745" y="94.45" width="51.47" height="13.5" fill="#fff" opacity="0"></rect><text font-size="13.50" x="735.7" y="105.3" fill="#ffd53e"><tspan x="735.745" y="105.25">Oil</tspan></text></g><g class="legendMark"><rect x="730.745" y="183.45" width="104.25500000000001" height="13.5" fill="#fff" opacity="0"></rect><text font-size="13.50" x="735.7" y="194.3" fill="#34983f"><tspan x="735.745" y="194.25">Natural gas</tspan></text></g><g class="legendMark"><rect x="730.745" y="394.85" width="62.81" height="13.5" fill="#fff" opacity="0"></rect><text font-size="13.50" x="735.7" y="405.7" fill="#3360a9"><tspan x="735.745" y="405.65000000000003">Coal</tspan></text></g></g><g class="Areas"><rect x="52.562" y="76.6" width="678.183" height="458.69999999999993" opacity="0" fill="rgba(255,255,255,0)"></rect><path stroke-linecap="round" d="M52.6 282.7L79.7 282.3L106.8 280L133.9 280.2L161.1 279.2L188.2 280.4L215.3 276.2L242.5 275.8L269.6 277.1L296.7 278.3L323.8 271.6L351 272.9L378.1 270.8L405.2 263.4L432.3 266.5L459.5 263.3L486.6 258.8L513.7 254.5L540.9 257.9L568 262.2L595.1 261.5L622.2 255.4L649.4 260.4L676.5 255.1L703.6 259L730.7 268L730.745 535.3L52.562 535.3" fill="#3360a9" fill-opacity="0.7" class="World_1-area"></path><path stroke-linecap="round" d="M52.6 182.2L79.7 182.4L106.8 180.3L133.9 179.8L161.1 177.3L188.2 176.8L215.3 172.5L242.5 166.6L269.6 164.2L296.7 159.2L323.8 150.5L351 146L378.1 140.2L405.2 130.9L432.3 130.4L459.5 125.7L486.6 118.8L513.7 109.8L540.9 110.6L568 112.6L595.1 108.7L622.2 105.5L649.4 107.6L676.5 108.5L703.6 111.5L730.7 112.4L730.7 268L703.6 259L676.5 255.1L649.4 260.4L622.2 255.4L595.1 261.5L568 262.2L540.9 257.9L513.7 254.5L486.6 258.8L459.5 263.3L432.3 266.5L405.2 263.4L378.1 270.8L351 272.9L323.8 271.6L296.7 278.3L269.6 277.1L242.5 275.8L215.3 276.2L188.2 280.4L161.1 279.2L133.9 280.2L106.8 280L79.7 282.3L52.6 282.7" fill="#34983f" fill-opacity="0.7" class="World_2-area"></path><path stroke-linecap="round" d="M52.6 112.5L79.7 113.9L106.8 113.9L133.9 117.6L161.1 117L188.2 118.8L215.3 117.2L242.5 111.8L269.6 108.2L296.7 106.1L323.8 100.6L351 97.9L378.1 94.3L405.2 86L432.3 88.3L459.5 86.5L486.6 84.2L513.7 76.6L540.9 79.2L568 84L595.1 82.7L622.2 78L649.4 79.2L676.5 82.6L703.6 87.3L730.7 90L730.7 112.4L703.6 111.5L676.5 108.5L649.4 107.6L622.2 105.5L595.1 108.7L568 112.6L540.9 110.6L513.7 109.8L486.6 118.8L459.5 125.7L432.3 130.4L405.2 130.9L378.1 140.2L351 146L323.8 150.5L296.7 159.2L269.6 164.2L242.5 166.6L215.3 172.5L188.2 176.8L161.1 177.3L133.9 179.8L106.8 180.3L79.7 182.4L52.6 182.2" fill="#ffd53e" fill-opacity="0.7" class="World_0-area"></path><path stroke-linecap="round" d="M52.6 282.7L79.7 282.3L106.8 280L133.9 280.2L161.1 279.2L188.2 280.4L215.3 276.2L242.5 275.8L269.6 277.1L296.7 278.3L323.8 271.6L351 272.9L378.1 270.8L405.2 263.4L432.3 266.5L459.5 263.3L486.6 258.8L513.7 254.5L540.9 257.9L568 262.2L595.1 261.5L622.2 255.4L649.4 260.4L676.5 255.1L703.6 259L730.7 268" stroke="rgb(43, 80, 141)" stroke-opacity="0.7" stroke-width="0.5" fill="none" class="World_1-border"></path><path stroke-linecap="round" d="M52.6 182.2L79.7 182.4L106.8 180.3L133.9 179.8L161.1 177.3L188.2 176.8L215.3 172.5L242.5 166.6L269.6 164.2L296.7 159.2L323.8 150.5L351 146L378.1 140.2L405.2 130.9L432.3 130.4L459.5 125.7L486.6 118.8L513.7 109.8L540.9 110.6L568 112.6L595.1 108.7L622.2 105.5L649.4 107.6L676.5 108.5L703.6 111.5L730.7 112.4" stroke="rgb(44, 127, 53)" stroke-opacity="0.7" stroke-width="0.5" fill="none" class="World_2-border"></path><path stroke-linecap="round" d="M52.6 112.5L79.7 113.9L106.8 113.9L133.9 117.6L161.1 117L188.2 118.8L215.3 117.2L242.5 111.8L269.6 108.2L296.7 106.1L323.8 100.6L351 97.9L378.1 94.3L405.2 86L432.3 88.3L459.5 86.5L486.6 84.2L513.7 76.6L540.9 79.2L568 84L595.1 82.7L622.2 78L649.4 79.2L676.5 82.6L703.6 87.3L730.7 90" stroke="rgb(213, 178, 52)" stroke-opacity="0.7" stroke-width="0.5" fill="none" class="World_0-border"></path></g></g></g><g style="fill: #777;" class="SourcesFooter"><g style="fill: #777;" class="clickable"><text font-size="12.60" x="15.0" y="581.6"><tspan x="15" y="581.58">Source: International Energy Agency (IEA) via The World Bank</tspan></text></g><text font-size="12.60" x="582.4" y="581.6"><tspan x="582.37" y="581.58"><a target='_blank' style='fill: #777;' href='https://ourworldindata.org/fossil-fuels/'>OurWorldInData.org/fossil-fuels/</a> • <a style="fill: #777;" class="cclogo" href="http://creativecommons.org/licenses/by-sa/4.0/deed.en_US" target="_blank">CC BY-SA</a></tspan></text></g></g></svg>
